; generated by Slic3r 1.3.0-dev on 2018-08-11 at 20:08:18

; external perimeters extrusion width = 0.60mm (4.82mm^3/s)
; perimeters extrusion width = 0.45mm (12.73mm^3/s)
; infill extrusion width = 0.60mm (19.28mm^3/s)
; solid infill extrusion width = 0.60mm (9.64mm^3/s)
; top infill extrusion width = 0.60mm (6.43mm^3/s)
; support material extrusion width = 0.60mm (3.21mm^3/s)

M107
M190 S65 ; set bed temperature and wait for it to be reached
M104 S200 ; set temperature
; UBL Leving Load
G28 ; Home all axis
G29 L1; UBL Load
G29 A1; UBL Activate 

; Bilinear Leving Load
;G28 ; Home all axis
;G29
;M420 S1;

; Nozzle Purge (Probably only needed for small prints)
;G0 X15 Y10 F9000 ; Go to front
;G92 E0 ; zero the extruded length
;G0 Z0.2 ; Drop to bed
;G92 E0 ; zero the extruded length
;G1 X115 E5 F500 ; Extrude 15mm of filament in a 4cm line
;G92 E0 ; zero the extruded length
;G1 E-1 F100 ; retract a little
;G1 X220 F4000 ; Quickly wipe away from the filament line
;G1 Z10 ; Raise and begin printing.


; Filament gcode

M109 S200 ; set temperature and wait for it to be reached
G21 ; set units to millimeters
G90 ; use absolute coordinates
M82 ; use absolute distances for extrusion
G92 E0
G1 Z0.300 F599940.000
G1 E-10.00000 F12000.00000
G92 E0
G1 X106.300 Y132.300 F599940.000
G1 E10.00000 F12000.00000
G1 F1800
G1 X107.383 Y131.468 E10.09583
G1 X108.646 Y130.945 E10.19165
G1 X109.956 Y130.773 E10.28437
G1 X111.348 Y130.943 E10.38276
G1 X112.617 Y131.468 E10.47904
G1 X113.700 Y132.300 E10.57487
G1 X114.532 Y133.383 E10.67070
G1 X115.055 Y134.646 E10.76652
G1 X115.233 Y136.000 E10.86235
G1 X115.055 Y137.354 E10.95818
G1 X114.532 Y138.617 E11.05400
G1 X113.700 Y139.700 E11.14983
G1 X112.617 Y140.532 E11.24566
G1 X111.354 Y141.055 E11.34148
G1 X110.000 Y141.233 E11.43731
G1 X108.646 Y141.055 E11.53314
G1 X107.383 Y140.532 E11.62896
G1 X106.300 Y139.700 E11.72479
G1 X105.468 Y138.617 E11.82062
G1 X104.945 Y137.354 E11.91644
G1 X104.767 Y136.000 E12.01227
G1 X104.945 Y134.646 E12.10810
G1 X105.468 Y133.383 E12.20392
G1 X106.263 Y132.347 E12.29554
G1 X106.682 Y132.682 F599940.000
G1 F1800
G1 X107.654 Y131.936 E12.38147
G1 X108.785 Y131.467 E12.46740
G1 X109.959 Y131.313 E12.55042
G1 X111.211 Y131.466 E12.63891
G1 X112.346 Y131.936 E12.72512
G1 X113.318 Y132.682 E12.81106
G1 X114.064 Y133.654 E12.89699
G1 X114.533 Y134.785 E12.98292
G1 X114.693 Y136.000 E13.06886
G1 X114.533 Y137.215 E13.15480
G1 X114.064 Y138.346 E13.24072
G1 X113.318 Y139.318 E13.32666
G1 X112.346 Y140.064 E13.41260
G1 X111.215 Y140.533 E13.49852
G1 X110.000 Y140.693 E13.58446
G1 X108.785 Y140.533 E13.67040
G1 X107.654 Y140.064 E13.75633
G1 X106.682 Y139.318 E13.84226
G1 X105.936 Y138.346 E13.92820
G1 X105.467 Y137.215 E14.01413
G1 X105.307 Y136.000 E14.10006
G1 X105.467 Y134.785 E14.18600
G1 X105.936 Y133.654 E14.27193
G1 X106.645 Y132.729 E14.35366
G1 X107.064 Y133.064 F599940.000
G1 F1800
G1 X107.924 Y132.404 E14.42970
G1 X108.925 Y131.989 E14.50574
G1 X109.961 Y131.853 E14.57904
G1 X111.073 Y131.988 E14.65764
G1 X112.076 Y132.404 E14.73377
G1 X112.936 Y133.064 E14.80982
G1 X113.596 Y133.924 E14.88586
G1 X114.011 Y134.925 E14.96190
G1 X114.153 Y136.000 E15.03794
G1 X114.011 Y137.075 E15.11398
G1 X113.596 Y138.076 E15.19002
G1 X112.936 Y138.936 E15.26606
G1 X112.076 Y139.596 E15.34211
G1 X111.075 Y140.011 E15.41814
G1 X110.000 Y140.153 E15.49419
G1 X108.925 Y140.011 E15.57023
G1 X107.924 Y139.596 E15.64627
G1 X107.064 Y138.936 E15.72231
G1 X106.404 Y138.076 E15.79835
G1 X105.989 Y137.075 E15.87439
G1 X105.847 Y136.000 E15.95043
G1 X105.989 Y134.925 E16.02648
G1 X106.404 Y133.924 E16.10251
G1 X107.027 Y133.111 E16.17435
G1 X107.064 Y133.064 F599940.000
G1 E6.17435 F12000.00000
G92 E0
G1 X103.529 Y108.871 F599940.000
G1 E10.00000 F12000.00000
G1 F1800
G1 X103.529 Y88.129 E11.45500
G1 X107.754 Y88.129 E11.75138
G1 X107.408 Y87.295 E11.81472
G1 X107.317 Y86.600 E11.86386
G1 X107.408 Y85.905 E11.91300
G1 X107.676 Y85.258 E11.96213
G1 X108.103 Y84.703 E12.01125
G1 X108.658 Y84.276 E12.06037
G1 X109.305 Y84.008 E12.10951
G1 X109.981 Y83.919 E12.15730
G1 X110.689 Y84.006 E12.20730
G1 X111.342 Y84.276 E12.25689
G1 X111.897 Y84.703 E12.30601
G1 X112.323 Y85.258 E12.35513
G1 X112.592 Y85.905 E12.40427
G1 X112.683 Y86.600 E12.45341
G1 X112.592 Y87.295 E12.50255
G1 X112.246 Y88.129 E12.56589
G1 X116.471 Y88.129 E12.86227
G1 X116.471 Y108.871 E14.31727
G1 X112.246 Y108.871 E14.61365
G1 X112.592 Y109.705 E14.67699
G1 X112.683 Y110.400 E14.72613
G1 X112.592 Y111.095 E14.77527
G1 X112.323 Y111.742 E14.82441
G1 X111.897 Y112.297 E14.87353
G1 X111.342 Y112.723 E14.92265
G1 X110.695 Y112.992 E14.97178
G1 X110.000 Y113.083 E15.02092
G1 X109.305 Y112.992 E15.07006
G1 X108.658 Y112.724 E15.11919
G1 X108.103 Y112.297 E15.16831
G1 X107.676 Y111.742 E15.21743
G1 X107.408 Y111.095 E15.26657
G1 X107.316 Y110.394 E15.31617
G1 X107.416 Y109.688 E15.36617
G1 X107.754 Y108.871 E15.42816
G1 X103.589 Y108.871 E15.72034
G1 X104.064 Y108.336 F599940.000
G1 F1800
G1 X104.064 Y88.664 E17.10019
G1 X108.842 Y88.664 E17.43534
G1 X108.916 Y88.446 E17.45149
G1 X108.485 Y88.115 E17.48965
G1 X108.144 Y87.671 E17.52888
G1 X107.930 Y87.155 E17.56812
G1 X107.857 Y86.600 E17.60736
G1 X107.930 Y86.045 E17.64661
G1 X108.144 Y85.529 E17.68585
G1 X108.485 Y85.085 E17.72508
G1 X108.929 Y84.744 E17.76431
G1 X109.445 Y84.530 E17.80355
G1 X109.983 Y84.459 E17.84162
G1 X110.551 Y84.529 E17.88173
G1 X111.071 Y84.744 E17.92125
G1 X111.515 Y85.085 E17.96048
G1 X111.856 Y85.529 E17.99971
G1 X112.070 Y86.045 E18.03895
G1 X112.143 Y86.600 E18.07820
G1 X112.070 Y87.155 E18.11744
G1 X111.856 Y87.671 E18.15668
G1 X111.515 Y88.115 E18.19591
G1 X111.084 Y88.446 E18.23407
G1 X111.158 Y88.664 E18.25022
G1 X115.936 Y88.664 E18.58537
G1 X115.936 Y108.336 E19.96522
G1 X111.158 Y108.336 E20.30037
G1 X111.084 Y108.554 E20.31653
G1 X111.515 Y108.885 E20.35468
G1 X111.856 Y109.329 E20.39391
G1 X112.070 Y109.845 E20.43315
G1 X112.143 Y110.400 E20.47240
G1 X112.070 Y110.955 E20.51164
G1 X111.856 Y111.471 E20.55088
G1 X111.515 Y111.915 E20.59011
G1 X111.071 Y112.256 E20.62934
G1 X110.555 Y112.470 E20.66858
G1 X110.000 Y112.543 E20.70783
G1 X109.445 Y112.470 E20.74707
G1 X108.929 Y112.256 E20.78631
G1 X108.485 Y111.915 E20.82554
G1 X108.144 Y111.471 E20.86478
G1 X107.930 Y110.955 E20.90402
G1 X107.857 Y110.396 E20.94354
G1 X107.937 Y109.830 E20.98365
G1 X108.144 Y109.329 E21.02172
G1 X108.485 Y108.885 E21.06095
G1 X108.916 Y108.554 E21.09910
G1 X108.842 Y108.336 E21.11525
G1 X104.124 Y108.336 E21.44620
G1 E11.44620 F12000.00000
G92 E0
G1 X108.457 Y109.972 F599940.000
G1 E10.00000 F12000.00000
G1 F1800
G1 X108.612 Y109.599 E10.02835
G1 X108.867 Y109.267 E10.05769
G1 X109.199 Y109.012 E10.08704
G1 X109.585 Y108.852 E10.11638
G1 X109.986 Y108.799 E10.14474
G1 X110.414 Y108.851 E10.17495
G1 X110.801 Y109.012 E10.20440
G1 X111.133 Y109.267 E10.23374
G1 X111.388 Y109.599 E10.26308
G1 X111.548 Y109.985 E10.29243
G1 X111.603 Y110.400 E10.32178
G1 X111.548 Y110.815 E10.35113
G1 X111.388 Y111.201 E10.38047
G1 X111.133 Y111.533 E10.40982
G1 X110.801 Y111.788 E10.43916
G1 X110.415 Y111.948 E10.46850
G1 X110.000 Y112.003 E10.49785
G1 X109.585 Y111.948 E10.52720
G1 X109.199 Y111.788 E10.55655
G1 X108.867 Y111.533 E10.58589
G1 X108.612 Y111.201 E10.61523
G1 X108.452 Y110.815 E10.64458
G1 X108.397 Y110.399 E10.67403
G1 X108.449 Y110.031 E10.70003
G1 X108.457 Y109.972 F599940.000
G1 E0.70003 F12000.00000
G92 E0
G1 X104.600 Y107.800 F599940.000
G1 E10.00000 F12000.00000
G1 F1800
G1 X104.600 Y89.200 E11.30471
G1 X115.400 Y89.200 E12.06228
G1 X115.400 Y107.800 E13.36699
G1 X104.660 Y107.800 E14.12036
G1 X104.224 Y107.936 F599940.000
G1 E4.12036 F12000.00000
G92 E0
G1 X103.900 Y108.500 F599940.000
G1 X101.700 Y108.500 F599940.000
G1 X101.700 Y88.500 F599940.000
G1 X103.894 Y84.106 F599940.000
G1 X104.774 Y85.422 F599940.000
G1 X106.348 Y87.126 F599940.000
G1 X108.273 Y88.388 F599940.000
G1 X108.836 Y88.500 F599940.000
G1 X109.585 Y88.148 F599940.000
G1 E10.00000 F12000.00000
G1 F1800
G1 X109.199 Y87.988 E10.02935
G1 X108.867 Y87.733 E10.05869
G1 X108.612 Y87.401 E10.08803
G1 X108.452 Y87.015 E10.11738
G1 X108.397 Y86.600 E10.14672
G1 X108.452 Y86.185 E10.17607
G1 X108.612 Y85.799 E10.20542
G1 X108.867 Y85.467 E10.23476
G1 X109.199 Y85.212 E10.26410
G1 X109.585 Y85.052 E10.29345
G1 X109.986 Y84.999 E10.32181
G1 X110.414 Y85.051 E10.35202
G1 X110.801 Y85.212 E10.38147
G1 X111.133 Y85.467 E10.41081
G1 X111.388 Y85.799 E10.44015
G1 X111.548 Y86.185 E10.46950
G1 X111.603 Y86.600 E10.49885
G1 X111.548 Y87.015 E10.52820
G1 X111.388 Y87.401 E10.55754
G1 X111.133 Y87.733 E10.58688
G1 X110.801 Y87.988 E10.61623
G1 X110.415 Y88.148 E10.64557
G1 X110.000 Y88.203 E10.67492
G1 X109.645 Y88.156 E10.70006
G1 X109.585 Y88.148 F599940.000
G1 E0.70006 F12000.00000
G92 E0
G1 X108.836 Y88.500 F599940.000
G1 X108.273 Y88.388 F599940.000
G1 X106.348 Y87.126 F599940.000
G1 X104.774 Y85.422 F599940.000
G1 X103.894 Y84.106 F599940.000
G1 X104.082 Y83.164 F599940.000
G1 X105.861 Y79.049 F599940.000
G1 X107.135 Y77.135 F599940.000
G1 X99.500 Y69.500 F599940.000
G1 X99.871 Y69.871 F599940.000
G1 E10.00000 F12000.00000
G1 F1800
G1 X120.129 Y69.871 E11.42098
G1 X120.129 Y150.129 E17.05070
G1 X99.871 Y150.129 E18.47167
G1 X99.871 Y69.931 E24.09718
G1 X99.336 Y69.336 F599940.000
G1 F1800
G1 X120.664 Y69.336 E25.59330
G1 X120.664 Y150.664 E31.29817
G1 X99.336 Y150.664 E32.79429
G1 X99.336 Y69.396 E38.49494
G1 X98.800 Y68.800 F599940.000
G1 F1800
G1 X121.200 Y68.800 E40.06620
G1 X121.200 Y151.200 E45.84621
G1 X98.800 Y151.200 E47.41747
G1 X98.800 Y68.860 E53.19326
G1 X99.163 Y68.969 F599940.000
G1 E43.19326 F12000.00000
G92 E0
G1 X100.199 Y70.615 F599940.000
G1 E10.00000 F12000.00000
G1 F1800
G1 X100.615 Y70.199 E10.04161
G1 X101.378 Y70.199 E10.09546
G1 X100.199 Y71.378 E10.21324
G1 X100.199 Y72.140 E10.26709
G1 X102.140 Y70.199 E10.46103
G1 X102.903 Y70.199 E10.51488
G1 X100.199 Y72.903 E10.78497
G1 X100.199 Y73.666 E10.83882
G1 X103.666 Y70.199 E11.18507
G1 X104.428 Y70.199 E11.23893
G1 X100.199 Y74.428 E11.66133
G1 X100.199 Y75.191 E11.71519
G1 X105.191 Y70.199 E12.21375
G1 X105.953 Y70.199 E12.26760
G1 X100.199 Y75.953 E12.84233
G1 X100.199 Y76.716 E12.89618
G1 X106.716 Y70.199 E13.54706
G1 X107.478 Y70.199 E13.60091
G1 X100.199 Y77.478 E14.32795
G1 X100.199 Y78.241 E14.38180
G1 X108.241 Y70.199 E15.18499
G1 X109.004 Y70.199 E15.23885
G1 X100.199 Y79.004 E16.11820
G1 X100.199 Y79.766 E16.17205
G1 X109.766 Y70.199 E17.12756
G1 X110.529 Y70.199 E17.18141
G1 X100.199 Y80.529 E18.21308
G1 X100.199 Y81.291 E18.26693
G1 X111.291 Y70.199 E19.37475
G1 X112.054 Y70.199 E19.42860
G1 X100.199 Y82.054 E20.61259
G1 X100.199 Y82.817 E20.66644
G1 X112.817 Y70.199 E21.92658
G1 X113.579 Y70.199 E21.98043
G1 X100.199 Y83.579 E23.31672
G1 X100.199 Y84.342 E23.37057
G1 X114.342 Y70.199 E24.78303
G1 X115.104 Y70.199 E24.83688
G1 X100.199 Y85.104 E26.32549
G1 X100.199 Y85.867 E26.37934
G1 X115.867 Y70.199 E27.94411
G1 X116.629 Y70.199 E27.99796
G1 X100.199 Y86.629 E29.63888
G1 X100.199 Y87.392 E29.69274
G1 X117.392 Y70.199 E31.40982
G1 X118.155 Y70.199 E31.46367
G1 X100.199 Y88.155 E33.25691
G1 X100.199 Y88.917 E33.31076
G1 X118.917 Y70.199 E35.18016
G1 X119.680 Y70.199 E35.23401
G1 X100.199 Y89.680 E37.17956
G1 X100.199 Y90.442 E37.23341
G1 X102.785 Y87.856 E37.49171
G1 X102.785 Y87.801 E37.49555
G1 X102.839 Y87.801 E37.49940
G1 X119.801 Y70.839 E39.19338
G1 X119.801 Y71.602 E39.24723
G1 X103.602 Y87.801 E40.86506
G1 X104.364 Y87.801 E40.91891
G1 X107.102 Y85.064 E41.19233
G1 X107.513 Y84.529 E41.23991
G1 X108.047 Y84.119 E41.28749
G1 X119.801 Y72.365 E42.46138
G1 X119.801 Y73.127 E42.51524
G1 X109.276 Y83.653 E43.56644
G1 X109.770 Y83.588 E43.60166
G1 X110.067 Y83.624 E43.62278
G1 X119.801 Y73.890 E44.59495
G1 X119.801 Y74.652 E44.64880
G1 X110.720 Y83.734 E45.55576
G1 X111.259 Y83.957 E45.59697
G1 X119.801 Y75.415 E46.45008
G1 X119.801 Y76.177 E46.50393
G1 X111.719 Y84.259 E47.31107
G1 X112.071 Y84.529 E47.34236
G1 X112.132 Y84.609 E47.34948
G1 X119.801 Y76.940 E48.11539
G1 X119.801 Y77.703 E48.16924
G1 X112.463 Y85.041 E48.90209
G1 X112.583 Y85.196 E48.91596
G1 X112.726 Y85.541 E48.94229
G1 X119.801 Y78.465 E49.64893
G1 X119.801 Y79.228 E49.70278
G1 X112.923 Y86.107 E50.38976
G1 X113.011 Y86.780 E50.43776
G1 X119.801 Y79.990 E51.11588
G1 X119.801 Y80.753 E51.16973
G1 X113.152 Y87.402 E51.83382
G1 X113.295 Y87.441 E51.84431
G1 X113.199 Y87.801 E51.87067
G1 X113.515 Y87.801 E51.89304
G1 X119.801 Y81.515 E52.52082
G1 X119.801 Y82.278 E52.57467
G1 X114.278 Y87.801 E53.12629
G1 X115.041 Y87.801 E53.18014
G1 X119.801 Y83.041 E53.65560
G1 X119.801 Y83.803 E53.70946
G1 X115.803 Y87.801 E54.10876
G1 X116.566 Y87.801 E54.16261
G1 X119.801 Y84.566 E54.48576
G1 X119.801 Y85.328 E54.53961
G1 X116.799 Y88.331 E54.83951
G1 X116.799 Y89.094 E54.89336
G1 X119.801 Y86.091 E55.19326
G1 X119.801 Y86.853 E55.24711
G1 X116.799 Y89.856 E55.54701
G1 X116.799 Y90.619 E55.60086
G1 X119.801 Y87.616 E55.90076
G1 X119.801 Y88.379 E55.95461
G1 X116.799 Y91.382 E56.25451
G1 X116.799 Y92.144 E56.30836
G1 X119.801 Y89.141 E56.60826
G1 X119.801 Y89.904 E56.66211
G1 X116.799 Y92.907 E56.96201
G1 X116.799 Y93.669 E57.01586
G1 X119.801 Y90.666 E57.31576
G1 X119.801 Y91.429 E57.36961
G1 X116.799 Y94.432 E57.66951
G1 X116.799 Y95.194 E57.72336
G1 X119.801 Y92.191 E58.02326
G1 X119.801 Y92.954 E58.07711
G1 X116.799 Y95.957 E58.37701
G1 X116.799 Y96.720 E58.43086
G1 X119.801 Y93.717 E58.73076
G1 X119.801 Y94.479 E58.78461
G1 X116.799 Y97.482 E59.08451
G1 X116.799 Y98.245 E59.13836
G1 X119.801 Y95.242 E59.43826
G1 X119.801 Y96.004 E59.49211
G1 X116.799 Y99.007 E59.79201
G1 X116.799 Y99.770 E59.84586
G1 X119.801 Y96.767 E60.14576
G1 X119.801 Y97.530 E60.19961
G1 X116.799 Y100.532 E60.49951
G1 X116.799 Y101.295 E60.55336
G1 X119.801 Y98.292 E60.85326
G1 X119.801 Y99.055 E60.90711
G1 X116.799 Y102.058 E61.20701
G1 X116.799 Y102.820 E61.26087
G1 X119.801 Y99.817 E61.56076
G1 X119.801 Y100.580 E61.61462
G1 X116.799 Y103.583 E61.91451
G1 X116.799 Y104.345 E61.96837
G1 X119.801 Y101.342 E62.26826
G1 X119.801 Y102.105 E62.32212
G1 X116.799 Y105.108 E62.62201
G1 X116.799 Y105.870 E62.67587
G1 X119.801 Y102.868 E62.97577
G1 X119.801 Y103.630 E63.02962
G1 X116.799 Y106.633 E63.32952
G1 X116.799 Y107.396 E63.38337
G1 X119.801 Y104.393 E63.68327
G1 X119.801 Y105.155 E63.73712
G1 X116.799 Y108.158 E64.03702
G1 X116.799 Y108.921 E64.09087
G1 X119.801 Y105.918 E64.39077
G1 X119.801 Y106.680 E64.44462
G1 X100.199 Y126.283 E66.40233
G1 X100.199 Y127.046 E66.45618
G1 X119.801 Y107.443 E68.41390
G1 X119.801 Y108.206 E68.46775
G1 X100.199 Y127.809 E70.42546
G1 X100.199 Y128.571 E70.47931
G1 X119.801 Y108.968 E72.43703
G1 X119.801 Y109.731 E72.49088
G1 X100.199 Y129.334 E74.44859
G1 X100.199 Y130.096 E74.50244
G1 X119.801 Y110.493 E76.46016
G1 X119.801 Y111.256 E76.51401
G1 X100.199 Y130.859 E78.47172
G1 X100.199 Y131.621 E78.52557
G1 X119.801 Y112.018 E80.48329
G1 X119.801 Y112.781 E80.53714
G1 X100.199 Y132.384 E82.49485
G1 X100.199 Y133.147 E82.54870
G1 X119.801 Y113.544 E84.50642
G1 X119.801 Y114.306 E84.56027
G1 X100.199 Y133.909 E86.51798
G1 X100.199 Y134.672 E86.57183
G1 X119.801 Y115.069 E88.52955
G1 X119.801 Y115.831 E88.58340
G1 X100.199 Y135.434 E90.54111
G1 X100.199 Y136.197 E90.59496
G1 X119.801 Y116.594 E92.55268
G1 X119.801 Y117.357 E92.60653
G1 X100.199 Y136.959 E94.56424
G1 X100.199 Y137.722 E94.61809
G1 X105.845 Y132.076 E95.18198
G1 X105.208 Y132.905 E95.25580
G1 X104.806 Y133.877 E95.33012
G1 X100.199 Y138.485 E95.79024
G1 X100.199 Y139.247 E95.84409
G1 X104.553 Y134.892 E96.27900
G1 X104.438 Y135.770 E96.34155
G1 X100.199 Y140.010 E96.76492
G1 X100.199 Y140.772 E96.81878
G1 X104.522 Y136.449 E97.25051
G1 X104.610 Y137.123 E97.29851
G1 X100.199 Y141.535 E97.73911
G1 X100.199 Y142.297 E97.79296
G1 X104.801 Y137.695 E98.25261
G1 X105.024 Y138.234 E98.29383
G1 X100.199 Y143.060 E98.77579
G1 X100.199 Y143.823 E98.82964
G1 X105.267 Y138.754 E99.33580
G1 X105.598 Y139.186 E99.37421
G1 X100.199 Y144.585 E99.91343
